assets/images/script/s-4-bot.svg

<svg fill="none" height="241" viewBox="0 0 239 241" width="239" xmlns="http://www.w3.org/2000/svg"><path d="m144.976 3c22.838 0-45.6681.91188-68.4975 1.54556-23.8102.66091-49.8847 1.01375-73.33933 5.76074-1.07665.2179 4.41107.4018 5.55385.843 11.37948 4.3934 20.19688 13.5813 28.19648 22.3405 20.8128 22.7889 35.0522 48.6022 46.4245 77.1372 15.5258 38.958 27.207 44.746 23.639 86.986-1.666 19.732-13.8102 51.196-37.8085 31.052-20.7358-17.406-10.6236-45.431-5.68-68.016 8.6582-23.009 20.6551-46.772 49.3985-67.655 7.092-5.1521 17.83-11.0076 27.058-8.2899 8.259 2.4325 10.38 13.1133 11.962 20.1629 7.381 32.905 6.819 68.146 8.971 101.656.631 9.816.283 39.317-.427 29.506-1.755-24.248 3.278-51.648 11.606-74.328 8.899-24.232 26.754-39.758 50.982-48.825 1.428-.535 17.627-6.996 11.677-1.125" stroke="#000" stroke-linecap="round" stroke-width="5"/></svg>

<svg width="239" height="241" viewBox="0 0 239 241" fill="none" xmlns="http://www.w3.org/2000/svg">
<path d="M144.976 3C167.814 3 99.3079 3.91188 76.4785 4.54556C52.6683 5.20647 26.5938 5.55931 3.13917 10.3063C2.06252 10.5242 7.55024 10.7081 8.69302 11.1493C20.0725 15.5427 28.8899 24.7306 36.8895 33.4898C57.7023 56.2787 71.9417 82.092 83.314 110.627C98.8398 149.585 110.521 155.373 106.953 197.613C105.287 217.345 93.1428 248.809 69.1445 228.665C48.4087 211.259 58.5209 183.234 63.4645 160.649C72.1227 137.64 84.1196 113.877 112.863 92.994C119.955 87.8419 130.693 81.9864 139.921 84.7041C148.18 87.1366 150.301 97.8174 151.883 104.867C159.264 137.772 158.702 173.013 160.854 206.523C161.485 216.339 161.137 245.84 160.427 236.029C158.672 211.781 163.705 184.381 172.033 161.701C180.932 137.469 198.787 121.943 223.015 112.876C224.443 112.341 240.642 105.88 234.692 111.751" stroke="black" stroke-width="5" stroke-linecap="round"/>
</svg>
